icons/hugo.svg

<!--
  - The MIT License (MIT)
  -
  - Copyright (c) 2015-2024 Elior "Mallowigi" Boukhobza
  -
  - Permission is hereby granted, free of charge, to any person obtaining a copy
  - of this software and associated documentation files (the "Software"), to deal
  - in the Software without restriction, including without limitation the rights
  - to use, copy, modify, merge, publish, distribute, sublicense, and/or sell
  - copies of the Software, and to permit persons to whom the Software is
  - furnished to do so, subject to the following conditions:
  -
  - The above copyright notice and this permission notice shall be included in all
  - copies or substantial portions of the Software.
  -
  - THE SOFTWARE IS PROVIDED "AS IS", WITHOUT WARRANTY OF ANY KIND, EXPRESS OR
  - IMPLIED, INCLUDING BUT NOT LIMITED TO THE WARRANTIES OF MERCHANTABILITY,
  - FITNESS FOR A PARTICULAR PURPOSE AND NONINFRINGEMENT. IN NO EVENT SHALL THE
  - AUTHORS OR COPYRIGHT HOLDERS BE LIABLE FOR ANY CLAIM, DAMAGES OR OTHER
  - LIABILITY, WHETHER IN AN ACTION OF CONTRACT, TORT OR OTHERWISE, ARISING FROM,
  - OUT OF OR IN CONNECTION WITH THE SOFTWARE OR THE USE OR OTHER DEALINGS IN THE
  - SOFTWARE.
  -
  -->

<svg  version="1.1" xmlns="http://www.w3.org/2000/svg" viewBox="0 0 456 512" width="16px" height="16px">
  <path fill="#fe4088" data-iconColor="Hugo"
        d="M182.3744507,500.8088989L44.0750618,421.2050171c-27.1840649-15.6472168-44.0724792-44.853241-44.0750618-76.2187195V173.7541199c-0.0032289-31.6412354,16.0682735-60.4591141,42.990799-77.0866318l135.9623108-83.930603c26.8295288-16.5597115,60.427475-17.0007782,87.6819305-1.1546526l151.3150635,88.0028839c23.3294067,13.5684662,38.053772,38.7609558,38.0498962,65.746109v180.4338837c-0.0038757,29.3274231-16.112793,56.4811401-41.6662598,70.8677979l-150.1746216,84.5647583C236.9529877,515.7598877,209.6911774,515.5683594,182.3744507,500.8088989z M194.3569336,485.9414062c18.2845154,10.0107727,37.4979553,11.1163025,57.9575195,0.2753906l155.3789062-87.4960938c17.9736328-10.1201172,29.140625-29.2207031,29.1416016-49.8466797V162.1884766c0.0029297-18.359375-9.8554688-35.4990234-25.7265625-44.730957L254.0415039,26.1289062c-21.4335938-10.8588867-42.3813477-10.5371094-62.2661133,0.9584961L50.8549805,114.0737305c-19.8461914,12.2573242-31.6928711,33.5019531-31.6899414,56.828125v177.168457c0.0009766,22.8427734,12.3007812,44.1123047,32.0981445,55.5078125L194.3569336,485.9414062z M201.9047852,44.3330078L61.362793,131.0913086c-13.9008789,8.5854492-22.199707,23.4677734-22.1977539,39.809082v177.1699219c0.0009766,15.7089844,8.4594727,30.3369141,22.0756836,38.1738281l143.0927734,82.3632812c11.737793,6.7558594,26.3647461,6.8242188,38.1694336,0.1806641l155.3779297-87.4951172c11.6904297-6.5820312,18.953125-19.0048828,18.9541016-32.4199219V162.1870117c0.0009766-11.2636719-6.0458984-21.777832-15.7822266-27.440918L244.7529297,43.8442383C229.6625977,36.277832,215.6416016,36.4384766,201.9047852,44.3330078z M123.0221634,393.0299683V118.9700241H180.35495v99.8264694h95.1181946v-99.8264694h57.5046997v274.0599365h-57.5046997v-119.836792H180.35495v119.836792H123.0221634z"/>
</svg>

<svg xmlns="http://www.w3.org/2000/svg" viewBox="0 0 456 512"><path fill="#fe4088" d="M182.374 500.809 44.075 421.205C16.891 405.558.003 376.352 0 344.986V173.754c-.003-31.641 16.068-60.459 42.99-77.087l135.963-83.93a85.17 85.17 0 0 1 87.682-1.155L417.95 99.585c23.33 13.569 38.054 38.761 38.05 65.746v180.434c-.004 29.328-16.113 56.481-41.666 70.868l-150.175 84.565c-27.206 14.562-54.468 14.37-81.785-.39m11.983-14.868c18.284 10.011 37.498 11.117 57.957.276l155.38-87.496c17.973-10.12 29.14-29.221 29.141-49.847V162.188c.003-18.359-9.856-35.499-25.727-44.73l-157.066-91.33c-21.434-10.858-42.382-10.536-62.267.96l-140.92 86.986c-19.846 12.257-31.693 33.502-31.69 56.828V348.07c.001 22.843 12.3 44.113 32.098 55.508zm7.548-441.608L61.363 131.091c-13.901 8.586-22.2 23.468-22.198 39.81v177.17c.001 15.708 8.46 30.336 22.076 38.173l143.092 82.363c11.738 6.756 26.365 6.825 38.17.181l155.378-87.495a37.26 37.26 0 0 0 18.954-32.42V162.187c0-11.264-6.046-21.778-15.782-27.44l-156.3-90.903c-15.09-7.566-29.111-7.406-42.848.489M123.022 393.03V118.97h57.333v99.826h95.118V118.97h57.505v274.06h-57.505V273.193h-95.118V393.03z" data-iconColor="Hugo"/></svg>
